X: 21453
T: Kevin McHugh's
R: slide
M: 12/8
K: Dmajor
f2A fAA ~f3 fef|a2f ede f2d A2g|
f2A fAA ~f3 fef|1 a2f efe d3 d2e:|2 a2f efe d3 dcB||
AFA f2d A2A ABA|F2A d2c ~B3 B2A|
BAB c2B A2d c2B|1 ABA GFE D3 D2B:|2 ABA GFE D3 D2e||

